_includes/icons/color-signature.svg

<svg fill="#666" height="50" viewBox="0 0 48 48" width="50" xmlns="http://www.w3.org/2000/svg"><path d="m3 40h42v2h-42z" fill="#90a4ae"/><path d="m44 20c-3.800781 0-6 3.101563-7.5 5.199219-.300781.402344-.601562.902344-.898437 1.300781 0-.5-.101563-1.101562-.101563-1.5-.101562-2.601562-.199219-4.898437-1.898437-4.898437-1.203125 0-2.203125 1.296875-3.800782 3.5-1.800781 2.296875-4.199218 5.5-6.199218 5.5-.203125 0-.402344-.101563-.601563-.101563 3.699219-3.800781 5.898438-8.800781 5.898438-12 0-1.101562-.296875-2-.796875-2.699219-.300782-.699218-1.101563-1.300781-2.402344-1.300781-3.597656 0-6.699219 4.699219-6.699219 10.398438 0 2 .398438 3.902343 1.300781 5.402343-2 1.699219-4.699218 3.300782-7.902343 3.300782-1.199219 0-2.199219-.402344-3.199219-1.101563 3.800781-5.398437 8.800781-13.601562 8.800781-20.699219 0-4.402343-2.5-5.300781-4.601562-5.300781-3.097657 0-10.398438 4.699219-10.398438 16.398438 0 3.101562 1.300781 7 3.5 9.601562-1.800781 2.398438-3.199219 4-3.300781 4-.398438.398438-.300781 1 .101562 1.398438.199219.203125.398438.300781.699219.300781s.5-.097656.699219-.300781c.199219-.199219 1.5-1.699219 3.300781-4 1.300781 1 2.699219 1.601562 4.398438 1.601562 3.402343 0 6.601562-1.5 9.203125-3.699219.597656.5 1.296875.699219 2.097656.699219 3 0 5.601562-3.5 7.800781-6.300781.601563-.800781 1.398438-1.800781 1.898438-2.300781.101562.703125.203125 1.902343.203125 2.703125.097656 2.398437.097656 4 1.5 4 1.199218 0 2-1.203125 3.097656-2.601563 1.402344-2 3.101562-4.398437 5.902344-4.398437.597656 0 1-.402344 1-1 0-.601563-.5-1.101563-1.101563-1.101563zm-36.300781 9.398438c-1.699219-2.199219-2.699219-5.398438-2.699219-8 0-10 6.101563-14.398438 8.398438-14.398438 2.203125 0 2.601562 1.300781 2.601562 3.300781 0 6.398438-4.601562 14-8.300781 19.097657zm14.101562-2.097657c-.5-1.101562-.800781-2.5-.800781-3.902343 0-4.699219 2.5-8.398438 4.699219-8.398438.601562 0 .800781.199219.902344.398438.199218.300781.296875.800781.296875 1.402343 0 2.5-1.796875 6.398438-4.296875 9.398438-.203125.402344-.5.699219-.800782 1.101562z" fill="#1565c0"/></svg>

<svg xmlns="http://www.w3.org/2000/svg" viewBox="0 0 48 48" width="50" height="50" fill="#666"><path d="M 3 40 L 45 40 L 45 42 L 3 42 Z" fill="#90a4ae"/><path d="M 44 20 C 40.199219 20 38 23.101563 36.5 25.199219 C 36.199219 25.601563 35.898438 26.101563 35.601563 26.5 C 35.601563 26 35.5 25.398438 35.5 25 C 35.398438 22.398438 35.300781 20.101563 33.601563 20.101563 C 32.398438 20.101563 31.398438 21.398438 29.800781 23.601563 C 28 25.898438 25.601563 29.101563 23.601563 29.101563 C 23.398438 29.101563 23.199219 29 23 29 C 26.699219 25.199219 28.898438 20.199219 28.898438 17 C 28.898438 15.898438 28.601563 15 28.101563 14.300781 C 27.800781 13.601563 27 13 25.699219 13 C 22.101563 13 19 17.699219 19 23.398438 C 19 25.398438 19.398438 27.300781 20.300781 28.800781 C 18.300781 30.5 15.601563 32.101563 12.398438 32.101563 C 11.199219 32.101563 10.199219 31.699219 9.199219 31 C 13 25.601563 18 17.398438 18 10.300781 C 18 5.898438 15.5 5 13.398438 5 C 10.300781 5 3 9.699219 3 21.398438 C 3 24.5 4.300781 28.398438 6.5 31 C 4.699219 33.398438 3.300781 35 3.199219 35 C 2.800781 35.398438 2.898438 36 3.300781 36.398438 C 3.5 36.601563 3.699219 36.699219 4 36.699219 C 4.300781 36.699219 4.5 36.601563 4.699219 36.398438 C 4.898438 36.199219 6.199219 34.699219 8 32.398438 C 9.300781 33.398438 10.699219 34 12.398438 34 C 15.800781 34 19 32.5 21.601563 30.300781 C 22.199219 30.800781 22.898438 31 23.699219 31 C 26.699219 31 29.300781 27.5 31.5 24.699219 C 32.101563 23.898438 32.898438 22.898438 33.398438 22.398438 C 33.5 23.101563 33.601563 24.300781 33.601563 25.101563 C 33.699219 27.5 33.699219 29.101563 35.101563 29.101563 C 36.300781 29.101563 37.101563 27.898438 38.199219 26.5 C 39.601563 24.5 41.300781 22.101563 44.101563 22.101563 C 44.699219 22.101563 45.101563 21.699219 45.101563 21.101563 C 45.101563 20.5 44.601563 20 44 20 Z M 7.699219 29.398438 C 6 27.199219 5 24 5 21.398438 C 5 11.398438 11.101563 7 13.398438 7 C 15.601563 7 16 8.300781 16 10.300781 C 16 16.699219 11.398438 24.300781 7.699219 29.398438 Z M 21.800781 27.300781 C 21.300781 26.199219 21 24.800781 21 23.398438 C 21 18.699219 23.5 15 25.699219 15 C 26.300781 15 26.5 15.199219 26.601563 15.398438 C 26.800781 15.699219 26.898438 16.199219 26.898438 16.800781 C 26.898438 19.300781 25.101563 23.199219 22.601563 26.199219 C 22.398438 26.601563 22.101563 26.898438 21.800781 27.300781 Z" fill="#1565c0"/></svg>
